X:149
T:Miss Wades Fancy. VWMLa.149
%%VWML:Anon2-3049-p90-0
F:http://www.vwml.org/record/Anon2/3049/p90
S:Anon. MS, late 18thC, Vaughan Williams Mem. Library
N:Polka. PJH.
O:England;Yorkshire
Z:vmp/efdss.Simon Wilson. Reviewed PJH 2008.
M:C|
L:1/8
Q:1/2=120
K:C
g2g2 gagf|e2e2 e2de|f2d2 d2ef|e2c2 cdef|\
g2g2 gagf|e2e2 e2de|f4 d4|c4 -c4:|
|:e2d2 e2c2|!turn!fefg f4|G4 A2B2|cBcd c4|\
e2d2 e2c2|!turn!fefg f4|G4 A2B2|c4- c4:|
T:Rosemary Top. VWMLa.150
R:Jig
S:Anon. MS, late 18thC, Vaughan Williams Mem. Library
N:Probably Roseberry Topping in N.Yorks..
O:England;Yorkshire
Z:vmp/efdss.Simon Wilson. Reviewed PJH 2008.
M:6/8
L:1/8
Q:3/8=120
K:G
D|GBG AFD|GBG A2D|GBG ABc|BGG G2:|\
|:d|gfg efg|faf def|
gfg efg|fdd d2c/B/|\
cde ABc|Bcd GAB|cBc Adc|BGG G2:|
